packages/core/src/svgs/mtl.svg

<svg width="24" height="24" viewBox="0 0 24 24" fill="none" xmlns="http://www.w3.org/2000/svg">
<g clip-path="url(#clip0_31_14392)">
<path d="M0 0H24V24H0V0Z" fill="url(#paint0_linear_31_14392)"/>
<path d="M5.14282 6H5.99997V18H5.14282V6ZM9.42854 8.57143H10.2857V16.2857H9.42854V8.57143ZM13.7143 10.2857H14.5714V14.5714H13.7143V10.2857ZM18 6H18.8571V18H18V6Z" fill="white"/>
</g>
<defs>
<linearGradient id="paint0_linear_31_14392" x1="4.46486" y1="4.16229" x2="29.2059" y2="32.5787" gradientUnits="userSpaceOnUse">
<stop stop-color="#1A1E21"/>
<stop offset="1" stop-color="#06060A"/>
</linearGradient>
<clipPath id="clip0_31_14392">
<rect width="24" height="24" fill="white"/>
</clipPath>
</defs>
</svg>

<svg xmlns="http://www.w3.org/2000/svg" width="24" height="24" fill="none" viewBox="0 0 24 24"><g clip-path="url(#a)"><path fill="url(#b)" d="M0 0h24v24H0z"/><path fill="#fff" d="M5.143 6H6v12h-.857zm4.286 2.571h.857v7.715h-.857zm4.285 1.715h.857v4.285h-.857zM18 6h.857v12H18z"/></g><defs><linearGradient id="b" x1="4.465" x2="29.206" y1="4.162" y2="32.579" gradientUnits="userSpaceOnUse"><stop stop-color="#1A1E21"/><stop offset="1" stop-color="#06060A"/></linearGradient><clipPath id="a"><path fill="#fff" d="M0 0h24v24H0z"/></clipPath></defs></svg>
